X: 13
T: If I had my life to live over
C: Henry Tobias & Moe Jaffe (1939)
N: Copyright assigned 1943 to Bob Miller, Inc.
N: Copyright assigned 1944 to General Music Publishing Co.
Z: 2006 John Chambers <jc@trillian.mit.edu>
M: 3/4
L: 1/4
K: C
A | "C"GE>A | GE>A | GG2- | G3 |
  edc | "E7"Bd>c | "F"A3- | "A7"A2c |
  "Dm7"cAc | "G7"B2^A/B/ | "E7"dBd | "Am"c4B/c/ |
  "D7"ecA  | ^FAe | "G7"d3- | d2A |
  "C"GE>A | GE>A | GG2- | G2G |
  edc | "E7"Bd>c | "F"A3- | "A7"A2A |
  "Dm"ABc | dc"Cdim"A | "C"G3 | "A7"e2G |
  "Dm"FAe | "G7"d2c | "C"c3- | c2 |]


